X:1
T:Honorable Elliot's Reel
T:Honorable Elliot's Reel
T:John Pringle
C:John Pringle
L:1/8
M:2/2
K:F
V:1 treble 
V:1
 B |: ABcA Bddf | efge faac' | ABcA Bcdf | ecde f/f/f f2 :| fcAF dBGE | cBAf egce | fcAF dBbg | %8
 afeg f/f/f fa | (ba).g.f egce | (ag).f.e dfBd | gfed cfAc | BdGc AFFB || %13

